assets/alibabacloud/mono.svg

<svg viewBox="0 0 24 24" xmlns="http://www.w3.org/2000/svg"><path d="m3.996 4.517h5.291l-1.277 1.807-3.857 1.182a1.668 1.668 0 0 0 -1.165 1.601v5.786a1.668 1.668 0 0 0 1.165 1.6l3.857 1.183 1.277 1.807h-5.291a3.996 3.996 0 0 1 -3.996-3.996v-6.974a3.996 3.996 0 0 1 3.996-3.996m16.008 0h-5.291l1.277 1.807 3.857 1.182c.715.227 1.17.889 1.165 1.601v5.786a1.668 1.668 0 0 1 -1.165 1.6l-3.857 1.183-1.277 1.807h5.291a3.996 3.996 0 0 0 3.996-3.996v-6.974a3.996 3.996 0 0 0 -3.996-3.996m-4.007 8.345h-7.995v-1.804h7.995z"/></svg>

<svg xmlns="http://www.w3.org/2000/svg" viewBox="0 0 24 24"><path d="M3.996 4.517h5.291L8.01 6.324 4.153 7.506a1.67 1.67 0 0 0-1.165 1.601v5.786a1.67 1.67 0 0 0 1.165 1.6l3.857 1.183 1.277 1.807H3.996A3.996 3.996 0 0 1 0 15.487V8.513a3.996 3.996 0 0 1 3.996-3.996m16.008 0h-5.291l1.277 1.807 3.857 1.182c.715.227 1.17.889 1.165 1.601v5.786a1.67 1.67 0 0 1-1.165 1.6l-3.857 1.183-1.277 1.807h5.291A3.996 3.996 0 0 0 24 15.487V8.513a3.996 3.996 0 0 0-3.996-3.996m-4.007 8.345H8.002v-1.804h7.995z"/></svg>
